X:6
T:Ymdaith Gw\^yr Dyfnaint
T:The March of the Men of Devon
H:Repeats not present in Blodau'r Grug, but often played 
M:C
K:D
A>G | FD DD DF Ad |cA AA Ac eg | fd dc Bg gf | \
L:1/16
efed cdcB ABAG FGFE | \
L:1/8
 FD DD DF Ad | cA AA A/2B/2c/2d/2 e/2f/2g/2a/2 | fd dc Bg ec | d2 d>d d2 ::
 fg | af fd fd fa | ge ec ec eg | fd dc Bg gf | \
L:1/16
efed cdcB ABAG FGFE | \
L:1/8
 FD DD DF Ad | cA AA A/2B/2c/2d/2 e/2f/2g/2a/2 | fd dc Bg ec | d2 d>d d2 :|
